src/assets/icons/wing.svg

<?xml version="1.0" encoding="UTF-8" standalone="no"?>
<svg width="33px" height="35px" viewBox="0 0 33 35" version="1.1" xmlns="http://www.w3.org/2000/svg" xmlns:xlink="http://www.w3.org/1999/xlink">
    <g id="Flow-&amp;-UI" stroke="none" stroke-width="1" fill="none" fill-rule="evenodd">
        <g id="Group-15" transform="translate(5.000000, 5.000000)" fill="#FFFFFF">
            <path d="M0.720815456,1.3774043 C0.956263151,0.372519693 2.08930282,-0.124211466 2.98639804,0.385117043 L18.4116837,9.14609255 L18.2756802,9.38555141 L18.4117379,9.1461233 C22.5366409,11.4901449 23.9809027,16.7319061 21.6373765,20.8559373 C19.2950407,24.9801728 14.0523045,26.4242992 9.92878757,24.0816294 C7.60534734,22.7619561 6.04766258,20.4589638 5.66999235,17.8291459 L4.82378851,17.3478188 C2.70685324,16.1464905 1.86491384,13.5510202 2.81876932,11.3365638 C1.55508262,9.99420017 1.18164706,8.03487003 1.87749566,6.3129075 C0.600273071,5.13633831 0.245259251,3.41393573 0.720815456,1.3774043 Z M10.8255074,22.5038033 C14.0775065,24.3509776 18.2114034,23.2120047 20.059563,19.9591952 L20.2990002,20.095237 L20.0595246,19.9592628 C21.9067272,16.7059988 20.7677591,12.5721197 17.5149766,10.7251905 L2.41731139,2.1391963 C2.15036378,3.65026795 2.54778442,4.74702744 3.66926746,5.38398135 L15.6344423,12.1796748 C16.0702103,12.42661 16.2230014,12.9816009 15.975577,13.4182294 C15.7271599,13.8534126 15.1738386,14.0058983 14.7379544,13.7588971 L3.43520338,7.33839216 C3.09711194,8.61286001 3.6444087,9.98015817 4.81879181,10.647157 L12.3575015,14.9298839 C12.7950789,15.1768156 12.9480311,15.7312672 12.6994919,16.1666618 C12.4522494,16.6029719 11.8966229,16.7565003 11.4614458,16.508086 L4.33682633,12.4611661 C3.99841304,13.7361116 4.54535053,15.1031539 5.72042357,15.7699445 L9.61455445,17.9819734 C10.0502821,18.2307013 10.2035028,18.7846531 9.95536413,19.2193458 C9.70842893,19.6551138 9.15343797,19.8079048 8.71723551,19.5607231 L7.87068529,19.0794801 C8.42979288,20.5195591 9.4616909,21.728647 10.8255074,22.5038033 Z" id="wing" fill-rule="nonzero"></path>
            <path d="M10.8255074,22.5038033 C14.0775065,24.3509776 18.2114034,23.2120047 20.059563,19.9591952 L20.2990002,20.095237 L20.0595246,19.9592628 C21.9067272,16.7059988 20.7677591,12.5721197 17.5149766,10.7251905 L2.41731139,2.1391963 C2.15036378,3.65026795 2.54778442,4.74702744 3.66926746,5.38398135 L15.6344423,12.1796748 C16.0702103,12.42661 16.2230014,12.9816009 15.975577,13.4182294 C15.7271599,13.8534126 15.1738386,14.0058983 14.7379544,13.7588971 L3.43520338,7.33839216 C3.09711194,8.61286001 3.6444087,9.98015817 4.81879181,10.647157 L12.3575015,14.9298839 C12.7950789,15.1768156 12.9480311,15.7312672 12.6994919,16.1666618 C12.4522494,16.6029719 11.8966229,16.7565003 11.4614458,16.508086 L4.33682633,12.4611661 C3.99841304,13.7361116 4.54535053,15.1031539 5.72042357,15.7699445 L9.61455445,17.9819734 C10.0502821,18.2307013 10.2035028,18.7846531 9.95536413,19.2193458 C9.70842893,19.6551138 9.15343797,19.8079048 8.71723551,19.5607231 L7.87068529,19.0794801 C8.42979288,20.5195591 9.4616909,21.728647 10.8255074,22.5038033 Z" id="Path" opacity="0.3"></path>
        </g>
    </g>
</svg>

<svg width="33" height="35" viewBox="0 0 33 35" xmlns="http://www.w3.org/2000/svg"><g id="Flow-&amp;-UI" fill="none" fill-rule="evenodd"><g id="Group-15" transform="translate(5 5)" fill="#FFF"><path d="M.72 1.377A1.544 1.544 0 0 1 2.987.385l15.426 8.761-.136.24.136-.24a8.588 8.588 0 0 1 3.225 11.71A8.587 8.587 0 0 1 5.67 17.829l-.846-.481c-2.117-1.202-2.96-3.797-2.005-6.011a4.737 4.737 0 0 1-.942-5.024C.6 5.136.245 3.413.721 1.377zm10.106 21.127a6.773 6.773 0 0 0 9.234-2.545l.239.136-.24-.136a6.772 6.772 0 0 0-2.544-9.234L2.417 2.14c-.267 1.511.13 2.608 1.252 3.245l11.965 6.796a.909.909 0 0 1-.896 1.579L3.435 7.339a2.936 2.936 0 0 0 1.384 3.308l7.539 4.283a.907.907 0 1 1-.896 1.578l-7.125-4.047A2.935 2.935 0 0 0 5.72 15.77l3.895 2.212a.908.908 0 1 1-.898 1.579l-.846-.482a6.73 6.73 0 0 0 2.955 3.425z" id="wing" fill-rule="nonzero"/><path d="M10.826 22.504a6.773 6.773 0 0 0 9.234-2.545l.239.136-.24-.136a6.772 6.772 0 0 0-2.544-9.234L2.417 2.14c-.267 1.511.13 2.608 1.252 3.245l11.965 6.796a.909.909 0 0 1-.896 1.579L3.435 7.339a2.936 2.936 0 0 0 1.384 3.308l7.539 4.283a.907.907 0 1 1-.896 1.578l-7.125-4.047A2.935 2.935 0 0 0 5.72 15.77l3.895 2.212a.908.908 0 1 1-.898 1.579l-.846-.482a6.73 6.73 0 0 0 2.955 3.425z" id="Path" opacity=".3"/></g></g></svg>
